X:1
T:A minor William Billings, 1779
T:Thomas Flatman, 1637-1688 Anthem for the Evening    88. 88. (L. M.)
T:Morpheus Transcribed from Music In Miniature, 1779.
%%score [ 1 2 3 4 ]
L:1/8
M:none
K:C
V:1 treble nm="Treble" snm="Tr."
V:2 treble nm="Counter" snm="C."
V:3 treble-8 nm="Tenor" snm="T."
V:4 bass nm="Bass" snm="B."
V:1
 A4 A2 B2 | c4 B4 | A4 B4 | c8 | c4 c2 B2 | c4 A4 | A4 ^G4 | A8 | A4 c2 B2 | A4 B4 | (c2 d2) e4 | %11
w: 1.~A- wake my|soul, a-|wake mine|eyes,|A- wake my|drow- sy|fa- cul-|ties;|A- wake and|see the|new- * born|
w: 2.~Look~ up and|see th'un-|wea- ried|sun|Al- rea- dy|has his|race be|gun:|The pret- ty|lark is|moun- * ted|
 e8 | B4 c2 d2 | (e2 c2) (d2 B2) | (c A3) (B G3) | A8 |] %16
w: light,|Sprung from the|dark- * some *|womb * of *|night.|
w: high,|And sings her|ma- * tins *|in * the *|sky.|
V:2
 E4 E2 E2 | E4 E4 | E4 G4 | G8 | G4 E2 F2 | G4 F4 | E4 E4 | E8 | E4 E2 E2 | E4 G4 | G4 A4 | ^G8 | %12
w: 3.~A- rise, my|soul, and|thou, my|voice,|In songs of|praise ear-|ly re-|joice;|O great Cre-|a- tor,|heav'n- ly|King,|
 G4 E2 G2 | G4 G4 | E4 E4 | E8 |] %16
w: Thy prai- ses|let me|ev- er|sing.|
V:3
 e4 c2 B2 | A4 B4 | c4 d4 | e8 | e4 c2 d2 | e4 A4 | c4 B4 | A8 | A4 A2 B2 | c4 d4 | (e2 d2) c4 | %11
w: 4.~Thy power has|made, thy|good- ness|kept|This fence- less|bo- dy|while I|slept;|Yet one more|day hast|gi- * ven|
w: 5.~O keep my|heart from|sin se-|cure,|My life un-|blam- a-|ble and|pure,|That when the|last of|days * shall|
 B8 | e4 A2 B2 | (c2 e2) d4 | c4 B4 | A8 |] %16
w: me|From all the|powers * of|dark- ness|free.|
w: come,|I cheer- ful-|ly * may|meet my|doom.|
V:4
 A,4 A,2 E,2 | A,,4 E,4 | A,4 G,4 | C,8 | C,4 E,2 D,2 | C,4 D,4 | E,4 E,4 | A,,8 | A,,4 A,,2 E,2 | %9
 A,4 G,4 | (C2 B,2) A,4 | E,8 | E,4 A,2 G,2 | C,4 G,4 | A,4 E,4 | A,,8 |] %16

